images/pages/set_currency/ltc.svg

<?xml version="1.0" encoding="UTF-8"?>
<svg width="20px" height="20px" viewBox="0 0 20 20" version="1.1" xmlns="http://www.w3.org/2000/svg" xmlns:xlink="http://www.w3.org/1999/xlink">
    <!-- Generator: Sketch 44.1 (41455) - http://www.bohemiancoding.com/sketch -->
    <title>currency/ic-ltc</title>
    <desc>Created with Sketch.</desc>
    <defs></defs>
    <g id="Flows-to-create-CR" stroke="none" stroke-width="1" fill="none" fill-rule="evenodd">
        <g id="4-Choose-Currency-(Combine-Version)" transform="translate(-809.000000, -506.000000)" fill-rule="nonzero" fill="#C2C2C2">
            <g id="Group-10" transform="translate(305.000000, 138.000000)">
                <g id="Group-8" transform="translate(97.000000, 241.000000)">
                    <g id="Group-6-Copy" transform="translate(0.000000, 37.000000)">
                        <g id="Group-16-Copy">
                            <g id="Group-4">
                                <g id="Group-2" transform="translate(0.000000, 66.000000)">
                                    <g id="Group-14-Copy-2" transform="translate(357.000000, 0.000000)">
                                        <g id="currency/ic-ltc" transform="translate(50.000000, 24.000000)">
                                            <path d="M9.99480176,0 C4.47480176,0 0,4.47488987 0,9.99497797 C0,15.5151542 4.47480176,19.9897797 9.99480176,19.9897797 C15.514978,19.9897797 19.9897797,15.5151542 19.9897797,9.99497797 C19.9898678,4.47488987 15.5150661,0 9.99480176,0 Z M13.8746256,14.8688987 L6.06511013,14.8688987 L6.7214978,11.7353304 L5.44519824,12.6104846 L5.75524229,10.8956828 L7.09013216,9.97674009 L8.39955947,3.72660793 L10.837533,3.72660793 L9.93603524,8.01823789 L13.1101322,5.83374449 L12.7381498,7.61057269 L9.5645815,9.7861674 L8.93674009,12.7755947 L14.30837,12.7755947 L13.8746256,14.8688987 Z" id="LTC"></path>
                                        </g>
                                    </g>
                                </g>
                            </g>
                        </g>
                    </g>
                </g>
            </g>
        </g>
    </g>
</svg>

<svg width="20" height="20" viewBox="0 0 20 20" xmlns="http://www.w3.org/2000/svg"><title>currency/ic-ltc</title><path d="M9.995 0C4.475 0 0 4.475 0 9.995s4.475 9.995 9.995 9.995 9.995-4.475 9.995-9.995S15.515 0 9.995 0zm3.88 14.869h-7.81l.656-3.134-1.276.875.31-1.714 1.335-.92 1.31-6.25h2.438l-.902 4.292 3.174-2.184-.372 1.777-3.173 2.175-.628 2.99h5.371l-.433 2.093z" fill-rule="nonzero" fill="#C2C2C2"/></svg>
